X: 1
T: Ships Are Sailing
R: Reel
M: 4/4
L: 1/8
K: Edor
ed |\
"Em"Beed BcdB | "D"ADF{E}D ADFD | "Em"EDEF GFGA | Beef gfed |
"Em"Beed BcdB | "D"ADF{E}D ADFD | "Em"EDEF GFGA | "Bm"Beed "Em"e2 :|
|: ef |\
"Em"gfga bgeg | "D"fefg afdf | "Em"gfga bgeg | "D"afdf e2 ef |
"Em"gfga bgeg | "D"fefg afdf | "G"g2 bg "D"f2 af | "Bm"edef "Em"e2 :|
